Origami/64x64/apps/rescuetime.svg

<svg width="64" height="64" version="1" xmlns="http://www.w3.org/2000/svg">
 <rect x="20" y="4" width="24" height="56" rx="3" ry="2.8" style="fill:#cccccc"/>
 <rect transform="rotate(90)" x="20" y="-60" width="24" height="56" rx="3" ry="2.8" style="fill:#cccccc"/>
 <rect transform="rotate(90)" x="31" y="-54" width="4" height="22" rx="2" ry="2.75" style="opacity:.2"/>
 <rect x="30" y="10" width="4" height="22" rx="2" ry="2.75" style="fill:#3e3e3e"/>
 <rect transform="rotate(90)" x="30" y="-54" width="4" height="22" rx="2" ry="2.75" style="fill:#3e3e3e"/>
 <circle cx="32" cy="33" r="8" style="opacity:.2"/>
 <circle cx="32" cy="32" r="8" style="fill:#df574d"/>
 <path d="m4 41v1c0 1.662063 1.2495812 3 2.8007812 3h13.199219v-1h-13.199219c-1.5512 0-2.8007812-1.337937-2.8007812-3zm56 0c0 1.662063-1.250781 3-2.800781 3h-13.199219v1h13.199219c1.55 0 2.800781-1.337937 2.800781-3v-1zm-40 16.199219v1c0 1.55006 1.337999 2.800781 3 2.800781h18c1.662001 0 3-1.249501 3-2.800781v-1c0 1.55128-1.337999 2.800781-3 2.800781h-18c-1.662001 0-3-1.250721-3-2.800781z" style="opacity:.2"/>
 <path d="m23 4c-1.661977 0-3 1.2496034-3 2.8007812v1c0-1.5511778 1.338023-2.8007812 3-2.8007812h18c1.661977 0 3 1.2496035 3 2.8007812v-1c0-1.5511777-1.338023-2.8007812-3-2.8007812h-18zm-16.199219 16c-1.5511778 0-2.8007812 1.338023-2.8007812 3v1c0-1.661977 1.2496034-3 2.8007812-3h13.199219v-1h-13.199219zm37.199219 0v1h13.199219c1.549977 0 2.800781 1.338023 2.800781 3v-1c0-1.661977-1.250804-3-2.800781-3h-13.199219z" style="fill:#ffffff;opacity:.2"/>
</svg>

<svg xmlns="http://www.w3.org/2000/svg" width="64" height="64" version="1">
 <rect style="fill:#cccccc" width="24" height="56" x="20" y="4" rx="3" ry="2.8"/>
 <rect style="fill:#cccccc" width="24" height="56" x="20" y="-60" rx="3" ry="2.8" transform="matrix(0,1,-1,0,0,0)"/>
 <rect style="opacity:0.2" width="4" height="22" x="31" y="-54" rx="2" ry="2.75" transform="matrix(0,1,-1,0,0,0)"/>
 <rect style="fill:#3e3e3e" width="4" height="22" x="30" y="10" rx="2" ry="2.75"/>
 <rect style="fill:#3e3e3e" width="4" height="22" x="30" y="-54" rx="2" ry="2.75" transform="matrix(0,1,-1,0,0,0)"/>
 <circle style="opacity:0.2" cx="32" cy="33" r="8"/>
 <circle style="fill:#df574d" cx="32" cy="32" r="8"/>
 <path style="opacity:0.2" d="m 4,41 0,1 c 0,1.662063 1.2495812,3 2.8007812,3 L 20,45 20,44 6.8007812,44 C 5.2495812,44 4,42.662063 4,41 Z m 56,0 c 0,1.662063 -1.250781,3 -2.800781,3 L 44,44 l 0,1 13.199219,0 C 58.749219,45 60,43.662063 60,42 l 0,-1 z m -40,16.199219 0,1 C 20,59.749279 21.337999,61 23,61 l 18,0 c 1.662001,0 3,-1.249501 3,-2.800781 l 0,-1 C 44,58.750499 42.662001,60 41,60 l -18,0 c -1.662001,0 -3,-1.250721 -3,-2.800781 z"/>
 <path style="opacity:0.2;fill:#ffffff" d="M 23 4 C 21.338023 4 20 5.2496034 20 6.8007812 L 20 7.8007812 C 20 6.2496034 21.338023 5 23 5 L 41 5 C 42.661977 5 44 6.2496035 44 7.8007812 L 44 6.8007812 C 44 5.2496035 42.661977 4 41 4 L 23 4 z M 6.8007812 20 C 5.2496034 20 4 21.338023 4 23 L 4 24 C 4 22.338023 5.2496034 21 6.8007812 21 L 20 21 L 20 20 L 6.8007812 20 z M 44 20 L 44 21 L 57.199219 21 C 58.749196 21 60 22.338023 60 24 L 60 23 C 60 21.338023 58.749196 20 57.199219 20 L 44 20 z"/>
</svg>
